!!!OTL: GROSSER GOTT VOM HIMMEL DROBEN
!!!ARE: Europa, Mitteleuropa, Deutschland
!!!SCT: E0721
!!!YEM: Copyright 1995, estate of Helmut Schaffrath.
**kern
*ICvox
*Ivox
*M3/4
*k[]
*C:
{8.e
16d
=1
4.c
8E
8D
8D
=2
4G
4F}
{8.d
16c
=3
4.B
8G
8A
8B
=4
4.c
8G}
{8.e
16d
=5
4.c
8B
8A
8E
=6
4G
4F}
{8.d
16c
=7
4.B8G
8A
8B
=8
4c
4r}
!! Strange error occured here -- lots of junk removed 
*k[f#]
*G:
{8dd
8cc
=1
4b
4a
4b
=2
4cc
8cc
8b
4a}
=3
{4cc
4b
4cc
=4
4dd
8dd
8cc
8b}
{8cc
=5
4dd
4cc#
4dd
=6
4ee
8ee
8a
8a}
{8b
=7
4cc
8cc
8f#
4f#
=8
4g
4r}
==
!!!AGN: Liebes - Lied, Leid, Klage
!!!ONB: ESAC (Essen Associative Code) Database: ERK2
!!!AMT: simple triple
!!!AIN: vox
!!!EED: Helmut Schaffrath
!!!EEV: 1.0
*-
